static/img/kroki/17e63b15b97fcbfb2ce24aeafccb95a7.svg

<?xml version="1.0" encoding="us-ascii" standalone="no"?><svg xmlns="http://www.w3.org/2000/svg" xmlns:xlink="http://www.w3.org/1999/xlink" contentStyleType="text/css" height="374px" preserveAspectRatio="none" style="width:328px;height:374px;" version="1.1" viewBox="0 0 328 374" width="328px" zoomAndPan="magnify"><defs/><g><!--class gcp_address--><g id="elem_gcp_address"><rect codeLine="23" fill="#3D176E" height="39.7891" id="gcp_address" rx="2.5" ry="2.5" style="stroke:#000D19;stroke-width:0.5;" width="142" x="98" y="328.58"/><ellipse cx="113" cy="348.4745" fill="#ADD1B2" rx="11" ry="11" style="stroke:#181818;stroke-width:1.0;"/><path d="M115.9688,354.1152 Q115.3906,354.412 114.75,354.5527 Q114.1094,354.7089 113.4063,354.7089 Q110.9063,354.7089 109.5781,353.0683 Q108.2656,351.412 108.2656,348.287 Q108.2656,345.162 109.5781,343.5058 Q110.9063,341.8495 113.4063,341.8495 Q114.1094,341.8495 114.75,342.0058 Q115.4063,342.162 115.9688,342.4589 L115.9688,345.1777 Q115.3438,344.5995 114.75,344.3339 Q114.1563,344.0527 113.5313,344.0527 Q112.1875,344.0527 111.5,345.1308 Q110.8125,346.1933 110.8125,348.287 Q110.8125,350.3808 111.5,351.4589 Q112.1875,352.5214 113.5313,352.5214 Q114.1563,352.5214 114.75,352.2558 Q115.3438,351.9745 115.9688,351.3964 L115.9688,354.1152 Z " fill="#000000"/><text fill="#D9B8FF" font-family="Helvetica" font-size="17" lengthAdjust="spacing" textLength="100" x="132" y="354.3598">gcp_address</text></g><!--class gcp_resource--><g id="elem_gcp_resource"><rect codeLine="26" fill="#3D176E" height="39.7891" id="gcp_resource" rx="2.5" ry="2.5" style="stroke:#000D19;stroke-width:0.5;" width="150" x="7" y="167.79"/><ellipse cx="22" cy="187.6845" fill="#ADD1B2" rx="11" ry="11" style="stroke:#181818;stroke-width:1.0;"/><path d="M24.9688,193.3252 Q24.3906,193.622 23.75,193.7627 Q23.1094,193.9189 22.4063,193.9189 Q19.9063,193.9189 18.5781,192.2783 Q17.2656,190.622 17.2656,187.497 Q17.2656,184.372 18.5781,182.7158 Q19.9063,181.0595 22.4063,181.0595 Q23.1094,181.0595 23.75,181.2158 Q24.4063,181.372 24.9688,181.6689 L24.9688,184.3877 Q24.3438,183.8095 23.75,183.5439 Q23.1563,183.2627 22.5313,183.2627 Q21.1875,183.2627 20.5,184.3408 Q19.8125,185.4033 19.8125,187.497 Q19.8125,189.5908 20.5,190.6689 Q21.1875,191.7314 22.5313,191.7314 Q23.1563,191.7314 23.75,191.4658 Q24.3438,191.1845 24.9688,190.6064 L24.9688,193.3252 Z " fill="#000000"/><text fill="#D9B8FF" font-family="Helvetica" font-size="17" lengthAdjust="spacing" textLength="108" x="41" y="193.5698">gcp_resource</text></g><!--class ip_address--><g id="elem_ip_address"><rect codeLine="29" fill="#3D176E" height="39.7891" id="ip_address" rx="2.5" ry="2.5" style="stroke:#000D19;stroke-width:0.5;" width="129" x="192.5" y="167.79"/><ellipse cx="207.5" cy="187.6845" fill="#ADD1B2" rx="11" ry="11" style="stroke:#181818;stroke-width:1.0;"/><path d="M210.4688,193.3252 Q209.8906,193.622 209.25,193.7627 Q208.6094,193.9189 207.9063,193.9189 Q205.4063,193.9189 204.0781,192.2783 Q202.7656,190.622 202.7656,187.497 Q202.7656,184.372 204.0781,182.7158 Q205.4063,181.0595 207.9063,181.0595 Q208.6094,181.0595 209.25,181.2158 Q209.9063,181.372 210.4688,181.6689 L210.4688,184.3877 Q209.8438,183.8095 209.25,183.5439 Q208.6563,183.2627 208.0313,183.2627 Q206.6875,183.2627 206,184.3408 Q205.3125,185.4033 205.3125,187.497 Q205.3125,189.5908 206,190.6689 Q206.6875,191.7314 208.0313,191.7314 Q208.6563,191.7314 209.25,191.4658 Q209.8438,191.1845 210.4688,190.6064 L210.4688,193.3252 Z " fill="#000000"/><text fill="#D9B8FF" font-family="Helvetica" font-size="17" lengthAdjust="spacing" textLength="87" x="226.5" y="193.5698">ip_address</text></g><!--class resource--><g id="elem_resource"><rect codeLine="32" fill="#3D176E" height="39.7891" id="resource" rx="2.5" ry="2.5" style="stroke:#000D19;stroke-width:0.5;" width="113" x="112.5" y="7"/><ellipse cx="127.5" cy="26.8945" fill="#ADD1B2" rx="11" ry="11" style="stroke:#181818;stroke-width:1.0;"/><path d="M130.4688,32.5352 Q129.8906,32.832 129.25,32.9727 Q128.6094,33.1289 127.9063,33.1289 Q125.4063,33.1289 124.0781,31.4883 Q122.7656,29.832 122.7656,26.707 Q122.7656,23.582 124.0781,21.9258 Q125.4063,20.2695 127.9063,20.2695 Q128.6094,20.2695 129.25,20.4258 Q129.9063,20.582 130.4688,20.8789 L130.4688,23.5977 Q129.8438,23.0195 129.25,22.7539 Q128.6563,22.4727 128.0313,22.4727 Q126.6875,22.4727 126,23.5508 Q125.3125,24.6133 125.3125,26.707 Q125.3125,28.8008 126,29.8789 Q126.6875,30.9414 128.0313,30.9414 Q128.6563,30.9414 129.25,30.6758 Q129.8438,30.3945 130.4688,29.8164 L130.4688,32.5352 Z " fill="#000000"/><text fill="#D9B8FF" font-family="Helvetica" font-size="17" lengthAdjust="spacing" textLength="71" x="146.5" y="32.7798">resource</text></g><!--reverse link gcp_resource to gcp_address--><g id="link_gcp_resource_gcp_address"><path codeLine="35" d="M101.1423,223.6241 C117.8723,254.1441 141.72,297.69 158.47,328.25 " fill="none" id="gcp_resource-backto-gcp_address" style="stroke:#FFAF37;stroke-width:2.0;"/><polygon fill="none" points="92.49,207.84,95.8809,226.5082,106.4037,220.74,92.49,207.84" style="stroke:#FFAF37;stroke-width:2.0;"/></g><!--reverse link ip_address to gcp_address--><g id="link_ip_address_gcp_address"><path codeLine="36" d="M237.6624,223.5826 C220.7424,254.1026 196.59,297.69 179.65,328.25 " fill="none" id="ip_address-backto-gcp_address" style="stroke:#FFAF37;stroke-width:2.0;"/><polygon fill="none" points="246.39,207.84,232.4149,220.6734,242.91,226.4918,246.39,207.84" style="stroke:#FFAF37;stroke-width:2.0;"/></g><!--reverse link resource to gcp_resource--><g id="link_resource_gcp_resource"><path codeLine="37" d="M149.8577,62.8341 C133.1277,93.3541 109.28,136.9 92.53,167.46 " fill="none" id="resource-backto-gcp_resource" style="stroke:#FFAF37;stroke-width:2.0;"/><polygon fill="none" points="158.51,47.05,144.5963,59.95,155.1191,65.7182,158.51,47.05" style="stroke:#FFAF37;stroke-width:2.0;"/></g><!--reverse link resource to ip_address--><g id="link_resource_ip_address"><path codeLine="38" d="M188.3376,62.7926 C205.2576,93.3126 229.41,136.9 246.35,167.46 " fill="none" id="resource-backto-ip_address" style="stroke:#FFAF37;stroke-width:2.0;"/><polygon fill="none" points="179.61,47.05,183.09,65.7018,193.5851,59.8834,179.61,47.05" style="stroke:#FFAF37;stroke-width:2.0;"/></g><!--SRC=[XPBDReCm48JlF8Mbd96WKKkGUacHglOILKtlbR7NO04sMfj6wS-x5vgcDOOarvdFixChbv83WQQrUz90amEQm5HIjHHfGzQ8UfVfMYDP2475Cl7DUwtiHM136o0FKB-1bOpwn4ifMQN067BbM7UKLGNgJl53l4MgJ6-1iWwLrTIOjRKeyyw2KuQd-Ke8d_H35qiU9pSmmJHom5yaYY8UfpvoSTJPlV-8hNm74hj7ssWBavgJ4J_KsPO3uPISB7hqJtPyefnBLP1hHti-T485EDAt9ULwDz22riOTOomWQBjl8Pji1UcAYsGMVZm51smu7IbO-zhtm-7NV0J1boFtckwGWQlBMNfCZjxUVePXw4u9d8YfEVFkAFdUVqxm3G00]--></g></svg>

<svg xmlns="http://www.w3.org/2000/svg" width="328" height="374" viewBox="0 0 328 374"><rect width="142" height="39.789" x="98" y="328.58" fill="#3D176E" rx="2.5" ry="2.5" style="stroke:#000d19;stroke-width:.5"/><circle cx="113" cy="348.474" r="11" fill="#ADD1B2" style="stroke:#181818;stroke-width:1"/><path d="M115.969 354.115q-.578.297-1.219.438-.64.156-1.344.156-2.5 0-3.828-1.64-1.312-1.657-1.312-4.782t1.312-4.781q1.328-1.656 3.828-1.656.703 0 1.344.156.656.156 1.219.453v2.719q-.625-.579-1.219-.844-.594-.281-1.219-.281-1.344 0-2.031 1.078-.687 1.062-.687 3.156t.687 3.172q.688 1.062 2.031 1.062.625 0 1.219-.265.594-.281 1.219-.86z"/><text x="132" y="354.36" fill="#D9B8FF" font-family="Helvetica" font-size="17" textLength="100">gcp_address</text><rect width="150" height="39.789" x="7" y="167.79" fill="#3D176E" rx="2.5" ry="2.5" style="stroke:#000d19;stroke-width:.5"/><circle cx="22" cy="187.685" r="11" fill="#ADD1B2" style="stroke:#181818;stroke-width:1"/><path d="M24.969 193.325q-.578.297-1.219.438-.64.156-1.344.156-2.5 0-3.828-1.64-1.312-1.657-1.312-4.782t1.312-4.781q1.328-1.656 3.828-1.656.703 0 1.344.156.656.156 1.219.453v2.719q-.625-.578-1.219-.844-.594-.281-1.219-.281-1.343 0-2.031 1.078-.687 1.062-.687 3.156t.687 3.172q.688 1.062 2.031 1.062.625 0 1.219-.265.594-.281 1.219-.86z"/><text x="41" y="193.57" fill="#D9B8FF" font-family="Helvetica" font-size="17" textLength="108">gcp_resource</text><rect width="129" height="39.789" x="192.5" y="167.79" fill="#3D176E" rx="2.5" ry="2.5" style="stroke:#000d19;stroke-width:.5"/><circle cx="207.5" cy="187.685" r="11" fill="#ADD1B2" style="stroke:#181818;stroke-width:1"/><path d="M210.469 193.325q-.578.297-1.219.438-.64.156-1.344.156-2.5 0-3.828-1.64-1.312-1.657-1.312-4.782t1.312-4.781q1.328-1.656 3.828-1.656.703 0 1.344.156.656.156 1.219.453v2.719q-.625-.578-1.219-.844-.594-.281-1.219-.281-1.344 0-2.031 1.078-.687 1.062-.687 3.156t.687 3.172q.688 1.062 2.031 1.062.625 0 1.219-.265.594-.281 1.219-.86z"/><text x="226.5" y="193.57" fill="#D9B8FF" font-family="Helvetica" font-size="17" textLength="87">ip_address</text><rect width="113" height="39.789" x="112.5" y="7" fill="#3D176E" rx="2.5" ry="2.5" style="stroke:#000d19;stroke-width:.5"/><circle cx="127.5" cy="26.895" r="11" fill="#ADD1B2" style="stroke:#181818;stroke-width:1"/><path d="M130.469 32.535q-.578.297-1.219.438-.64.156-1.344.156-2.5 0-3.828-1.64-1.312-1.657-1.312-4.782t1.312-4.781q1.328-1.656 3.828-1.656.703 0 1.344.156.656.156 1.219.453v2.719q-.625-.578-1.219-.844-.594-.281-1.219-.281-1.344 0-2.031 1.078-.687 1.062-.687 3.156t.687 3.172q.688 1.062 2.031 1.062.625 0 1.219-.265.594-.281 1.219-.86z"/><text x="146.5" y="32.78" fill="#D9B8FF" font-family="Helvetica" font-size="17" textLength="71">resource</text><g fill="none"><path d="M101.142 223.624c16.73 30.52 40.578 74.066 57.328 104.626" style="stroke:#ffaf37;stroke-width:2"/><path d="m92.49 207.84 3.39 18.668 10.524-5.768z" style="stroke:#ffaf37;stroke-width:2"/></g><path fill="none" d="M237.662 223.583c-16.92 30.52-41.072 74.107-58.012 104.667m66.74-120.41-13.975 12.833 10.495 5.819z" style="stroke:#ffaf37;stroke-width:2"/><g fill="none"><path d="M149.858 62.834C133.128 93.354 109.28 136.9 92.53 167.46" style="stroke:#ffaf37;stroke-width:2"/><path d="m158.51 47.05-13.914 12.9 10.523 5.768z" style="stroke:#ffaf37;stroke-width:2"/></g><path fill="none" d="M188.338 62.793c16.92 30.52 41.072 74.107 58.012 104.667M179.61 47.05l3.48 18.652 10.495-5.819z" style="stroke:#ffaf37;stroke-width:2"/></svg>
